X: 1
T: Bobolinka   [D]
T: Bobolinda
C:
R: reel
Z: 2014 John Chambers <jc:trillian.mit.edu>
S: scanned page from Michelle Roderick for a Community Dance
M: C|
L: 1/8
K: D
|:\
"D"DDD2 D4 | F2A2 F2D2 | "A7"EEE2 E4 | C2E2 C2A,2 |
"D"DDD2 D4 | F2A2 F2D2 | "A7"A2G2 F2E2 | "D"D4 D4 :|
